Origami/64x64/apps/trimage.svg

<svg width="64" height="64" version="1.1" viewBox="0 0 64 64" xmlns="http://www.w3.org/2000/svg">
 <path d="m4.2335542 43.752405c-0.2122607 0.661202-0.2889809 1.219404-0.1796886 1.628805 0.3985612 1.483804 3.6596108 3.39301 8.3906244 5.359416l0.02734-0.028c-0.0079 0.02-0.01554 0.024-0.02344 0.034 4.494014 1.867405 10.319831 3.776411 16.347649 5.445416 13.53584 3.749611 28.004082 6.227618 30.308089 3.910211 0.682242-0.682602 0.906303-2.509807 0.843763-4.968814-0.09532 1.432404-0.358682 2.479607-0.843763 2.965008-2.305207 2.317407-16.772849-0.16-30.308089-3.910211-6.027818-1.669005-11.853635-3.578011-16.347649-5.445416 0.0079-0.02 0.01554-0.02 0.02344-0.034l-0.02734 0.028c-4.3516125-1.808806-7.4304215-3.562811-8.2110238-4.988215z" style="opacity:.2"/>
 <path d="m50.065289 13.28526c-17.18305 8.724426-27.962082 22.146066-37.618111 36.388108 4.494014 1.867405 10.319431 3.777811 16.347249 5.446816 11.071232-5.843018 21.958064-11.914235 26.568078-25.706076-1.613605-5.877417-3.46641-11.593234-5.297616-16.131048z" style="fill:#5bb1ec"/>
 <path d="m43.677271 4.0852328c-7.607023 0.6396018-41.192122 34.502102-39.624117 40.368119 0.3985612 1.483805 3.6624108 3.39201 8.3934244 5.358416l37.618111-36.388107c-2.102606-5.2118161-4.160012-8.8710269-5.734817-9.2910281-0.18958-0.05-0.407181-0.068-0.652761-0.044z" style="fill:#2588c6"/>
 <path d="m55.363305 29.485308-26.568078 25.706076c13.53584 3.749611 28.006082 6.228418 30.312089 3.911011 2.275007-2.276406-0.09694-16.292648-3.752811-29.618087z" style="fill:#b1daf6"/>
 <path d="m44.023438 4.0898438c-0.108501-0.00745-0.224657-0.0041876-0.347657 0.0078124l0.003907-0.0039062c-7.608024 0.6396019-41.192958 34.49917-39.626954 40.367188 0.0032672 0.011826 0.0134187 0.025168 0.0175781 0.037109 1.376761-7.870718 32.33478-38.788462 39.607422-39.404297l-0.001953 0.0019531c0.246-0.024 0.462344-0.0070312 0.652344 0.0429688 1.574005 0.4200013 3.632369 4.0772464 5.734375 9.2890621l-0.03125 0.03125c0.012-0.0062 0.023156-0.013331 0.035156-0.019531 1.832006 4.537413 3.68287 10.25289 5.296875 16.128906-2e-3 6e-3 -0.001906 0.009625-0.003906 0.015625 2.583857 9.424961 4.512121 19.160018 4.619141 24.869141 0.127293-5.51742-1.877775-15.86769-4.619141-25.867187 2e-3 -0.006001 0.001906-0.011579 0.003906-0.017579-1.614005-5.876016-3.464869-11.58954-5.296875-16.126953-0.012 0.0062-0.023156 0.013332-0.035156 0.019532l0.03125-0.03125c-2.102006-5.2118166-4.16037-8.8710148-5.734375-9.2910161-0.095-0.025-0.196187-0.0413782-0.304687-0.0488281z" style="fill:#ffffff;opacity:.2"/>
</svg>

<svg xmlns="http://www.w3.org/2000/svg" width="64" height="64" version="1.1" viewBox="0 0 64 64">
 <path style="opacity:0.2" d="m 4.2335542,43.752405 c -0.2122607,0.661202 -0.2889809,1.219404 -0.1796886,1.628805 0.3985612,1.483804 3.6596108,3.39301 8.3906244,5.359416 l 0.02734,-0.028 c -0.0079,0.02 -0.01554,0.024 -0.02344,0.034 4.494014,1.867405 10.319831,3.776411 16.347649,5.445416 13.53584,3.749611 28.004082,6.227618 30.308089,3.910211 0.682242,-0.682602 0.906303,-2.509807 0.843763,-4.968814 -0.09532,1.432404 -0.358682,2.479607 -0.843763,2.965008 -2.305207,2.317407 -16.772849,-0.16 -30.308089,-3.910211 -6.027818,-1.669005 -11.853635,-3.578011 -16.347649,-5.445416 0.0079,-0.02 0.01554,-0.02 0.02344,-0.034 l -0.02734,0.028 C 8.0928775,46.928014 5.0140685,45.174009 4.2334662,43.748605 Z"/>
 <path style="fill:#5bb1ec" d="m 50.065289,13.28526 c -17.18305,8.724426 -27.962082,22.146066 -37.618111,36.388108 4.494014,1.867405 10.319431,3.777811 16.347249,5.446816 C 39.865659,49.277166 50.752491,43.205949 55.362505,29.414108 53.7489,23.536691 51.896095,17.820874 50.064889,13.28306 Z"/>
 <path style="fill:#2588c6" d="M 43.677271,4.0852328 C 36.070248,4.7248346 2.485149,38.587335 4.0531536,44.453352 c 0.3985612,1.483805 3.6624108,3.39201 8.3934244,5.358416 L 50.064689,13.423661 C 47.962083,8.2118449 45.904677,4.5526341 44.329872,4.1326329 c -0.18958,-0.05 -0.407181,-0.068 -0.652761,-0.044 z"/>
 <path style="fill:#b1daf6" d="M 55.363305,29.485308 28.795227,55.191384 c 13.53584,3.749611 28.006082,6.228418 30.312089,3.911011 2.275007,-2.276406 -0.09694,-16.292648 -3.752811,-29.618087 z"/>
 <path style="opacity:0.2;fill:#ffffff" d="M 44.023438 4.0898438 C 43.914937 4.0823938 43.798781 4.0856562 43.675781 4.0976562 L 43.679688 4.09375 C 36.071664 4.7333519 2.4867298 38.59292 4.0527344 44.460938 C 4.0560016 44.472764 4.0661531 44.486106 4.0703125 44.498047 C 5.4470735 36.627329 36.405092 5.7095851 43.677734 5.09375 L 43.675781 5.0957031 C 43.921781 5.0717031 44.138125 5.0886719 44.328125 5.1386719 C 45.90213 5.5586732 47.960494 9.2159183 50.0625 14.427734 L 50.03125 14.458984 C 50.04325 14.452784 50.054406 14.445653 50.066406 14.439453 C 51.898412 18.976866 53.749276 24.692343 55.363281 30.568359 C 55.361281 30.574359 55.361375 30.577984 55.359375 30.583984 C 57.943232 40.008945 59.871496 49.744002 59.978516 55.453125 C 60.105809 49.935705 58.100741 39.585435 55.359375 29.585938 C 55.361375 29.579937 55.361281 29.574359 55.363281 29.568359 C 53.749276 23.692343 51.898412 17.978819 50.066406 13.441406 C 50.054406 13.447606 50.04325 13.454738 50.03125 13.460938 L 50.0625 13.429688 C 47.960494 8.2178714 45.90213 4.5586732 44.328125 4.1386719 C 44.233125 4.1136719 44.131938 4.0972937 44.023438 4.0898438 z"/>
</svg>
